X:1
T:Adam catch'd Eve
T:Adam catch'd Eve
T:Joseph Baildon (c.1727-1774)
T:www.sangerforum.no
C:Joseph Baildon (c.1727-1774)
Z:www.sangerforum.no
%%score [ 1 2 3 ]
L:1/8
Q:1/4=90
M:4/4
K:A
V:1 treble nm="I"
V:2 treble nm="II"
V:3 treble nm="III"
V:1
|: A2 A2 B4 | G4 F2 E2 | F6 F2 | E8 | D2 D2 D4 | C4 B,2 A,2 | B,6 E2 | A8 :| %8
w: A- dam catch'd|Eve by the|fur- be-|low,|A- dam catch'd|Eve by the|fur- be-|low,|
V:2
|: z2 c2 c2 d2 | e2 (dc) B2 c2 | d2 A2 A2 B2 | c2 (BA) G2 A2 | B2 F2 F2 G2 | A4 (B2 c2) | %6
w: And that's the|old- est _ catch I|know, and that's the|old- est _ catch I|know, and that's the|old- est _|
 d4 (c2 B2) | c8 :| %8
w: catch I _|know.|
V:3
|: z2 A,2 A2 G F | E4 z4 | z2 A G F2 E D | C4 z4 | z2 F E D2 C B, | A,4 z4 | z2 C D E2 F G | A8 :| %8
w: Oh! Ho! did he|so,|did he so, did he|so,|did he so, did he|so,|did he so, did he|so?|

